X: 236
T: Bekledim de Gelmedin
C: Yesârî Âsım Arsoy
O: Turkey
F: http://compmusic.upf.edu/node/140
N: nihavent--sarki--semai--bekledim_de--yesari_asim_arsoy
N: makam= nihavent
N: form= sarki
N: usul= semai = 3/4
M: 3/4
L: 1/16
K: C _B _e  
Q: 1/4=132
%%MIDI tuningsystem comma53
d3{e}^c d4 G4  | d3{e}^c d4 G4  | d2e2 d2e2 d2e2  | d12  | \
w:  ARANAĞME  |   |   |   | 
d3{e}^c d4 G4  | d3{e}^c d4 G4  | 
w:  ARANAĞME  |   | 
d2e2 d2c2 B2A2  | G12  | d3{e}^c d4 G4  | \
w:   |   |   | 
d3{e}^c d4 G4  | d2e2 d2e2 d2e2  | 
w:   |   | 
g12  | f4 e4 d4  | c4 B4 A4  | G4 B4 d4  | G12  | \
w:   |   |   |   |   | 
G8 G4  | d8 d4  | B4 A4 G4  | d12  | d8 d4  | 
w:  Bek le  |  dim  de   |  gel *  me  |  din    |  Sev di  | 
g4 f4 e4  | d4 c4 B4  | d12  | G8 G4  | d8 d4  | \
w:  ği *  mi   |  bil *  me  |  din    |  Bek le  |  dim  de   | 
B4 A4 G4  | d12  | d8 d4  | g4 f4 e4  | d4 c4 B4  | 
w:  gel *  me  |  din    |  Sev di  |  ği *  mi   |  bil *  me  | 
d12  | d8 d4  | b8 b4  | a8 a2g2  | g12  | f8 f4  | \
w:  din    |  Göz ya  |  şı mı   |  sil me  |  din    |  Hiç  mi   | 
b4 a4 g4  | f6e2 e2d2  | d12  | d8 d4  | 
w:  be *  ni   |  sev *  me  |  din    |  Göz ya  | 
b8 b4  | a8 a2g2  | g12  | f8 f4  | b4 a4 g4  | \
w:  şı mı   |  sil me  |  din    |  Hiç  mi   |  be *  ni   | 
f6e2 e2d2  | d12  | f12  | g12  | d2e2 d2e2 d2e2  | 
w:  sev *  me  |  din    |  Söy  |  le   |  söy  | 
f12  | c8 d4  | B8 c4  | A8 B4  | G12  | f12  | g12  | \
w:  le   |  hiç  mi   |  be ni   |  Sev me  |  din    |  Söy  |  le   | 
d2e2 d2e2 d2e2  | f12  | c8 d4  | B8 c4  | 
w:  söy  |  le   |  hiç  mi   |  be ni   | 
A8 B4  | G12  | d3{e}^c d4 G4  | d3{e}^c d4 G4  | \
w:  Sev me  |  din    |  ARANAĞME  |   | 
d2e2 d2e2 d2e2  | d12  | d3{e}^c d4 G4  | 
w:   |   |  ARANAĞME  | 
d3{e}^c d4 G4  | d2e2 d2c2 B2A2  | G12  | \
w:   |   |   | 
d3{e}^c d4 G4  | d3{e}^c d4 G4  | d2e2 d2e2 d2e2  | 
w:   |   |   | 
g12  | f4 e4 d4  | c4 B4 A4  | G4 B4 d4  | G12  | \
w:   |   |   |   |   | 
G8 G4  | d8 d4  | B4 A4 G4  | d12  | d8 d4  | 
w:  Bek le  |  dim  de   |  gel *  me  |  din    |  Sev di  | 
g4 f4 e4  | d4 c4 B4  | d12  | G8 G4  | d8 d4  | \
w:  ği *  mi   |  bil *  me  |  din    |  Bek le  |  dim  de   | 
B4 A4 G4  | d12  | d8 d4  | g4 f4 e4  | d4 c4 B4  | 
w:  gel *  me  |  din    |  Sev di  |  ği *  mi   |  bil *  me  | 
d12  | d8 d4  | b8 b4  | a8 a2g2  | g12  | f8 f4  | \
w:  din    |  Göz ya  |  şı mı   |  sil me  |  din    |  Hiç  mi   | 
b4 a4 g4  | f6e2 e2d2  | d12  | d8 d4  | 
w:  be *  ni   |  sev *  me  |  din    |  Göz ya  | 
b8 b4  | a8 a2g2  | g12  | f8 f4  | b4 a4 g4  | \
w:  şı mı   |  sil me  |  din    |  Hiç  mi   |  be *  ni   | 
f6e2 e2d2  | d12  | f12  | g12  | d2e2 d2e2 d2e2  | 
w:  sev *  me  |  din    |  Söy  |  le   |  söy  | 
f12  | c8 d4  | B8 c4  | A8 B4  | G12  | f12  | g12  | \
w:  le   |  hiç  mi   |  be ni   |  Sev me  |  din    |  Söy  |  le   | 
d2e2 d2e2 d2e2  | f12  | c8 d4  | B8 c4  | 
w:  söy  |  le   |  hiç  mi   |  be ni   | 
A8 B4  | G12  | |


